X:230
T:Reel 230
M:4/4
K:Emin
L:1/8
EDB,D G,DB,D|G,DB,D EA,A,E|EDB,D G,DB,D|DEGA BGGE:|B,D (3DB,A, EGFD|DDAD EAcA| (3GAG BG dG (3GGG |BdBA AGEG|DDEG AddG|Bd^ce cAAc|BGAG  (3GGA GA|GBB^c d2Bc|GGBG dGBG|GABG dGEG| (3GAG BG dGBG|DEGA BGGc|Bd (3d^cd ecdB|GAB^c dBGE|edB^c d2BG|EDCE B,DDF|
